X:1
T:Pastourelle St Ouen des Alleux
C:SKOL AL LOUARN
P:A2B2
Q:1/4=120
M:4/4
L:1/8
K:G
P:A
|: GA/B/ cc/d/ cB AG/A/ |1 BG GF/G/ AF D2 :|2 BG D2 A2 G2 ||
P:B
|: DD EG/F/ EF GG | DD EG/F/ EF G2 :|
